Leaflet.Polydraw/src/icons/icon-polydraw2.svg

<?xml version="1.0" encoding="UTF-8" standalone="no"?>
<!-- Generated by Pixelmator Pro 3.7 -->

<svg
   width="512"
   height="512"
   viewBox="0 0 512 512"
   version="1.1"
   id="svg1"
   sodipodi:docname="icon-polydraw2.svg"
   inkscape:version="1.4.2 (ebf0e940, 2025-05-08)"
   xmlns:inkscape="http://www.inkscape.org/namespaces/inkscape"
   xmlns:sodipodi="http://sodipodi.sourceforge.net/DTD/sodipodi-0.dtd"
   xmlns="http://www.w3.org/2000/svg"
   xmlns:svg="http://www.w3.org/2000/svg">
  <defs
     id="defs1" />
  <sodipodi:namedview
     id="namedview1"
     pagecolor="#ffffff"
     bordercolor="#000000"
     borderopacity="0.25"
     inkscape:showpageshadow="2"
     inkscape:pageopacity="0.0"
     inkscape:pagecheckerboard="0"
     inkscape:deskcolor="#d1d1d1"
     inkscape:zoom="2.1854905"
     inkscape:cx="327.38645"
     inkscape:cy="233.586"
     inkscape:window-width="1728"
     inkscape:window-height="1084"
     inkscape:window-x="0"
     inkscape:window-y="33"
     inkscape:window-maximized="0"
     inkscape:current-layer="svg1" />
  <path
     id="Shape"
     fill="#000000"
     fill-rule="evenodd"
     stroke="none"
     d="M 73.574318 425.686768 C 72.433441 425.875031 69.474998 425.094574 67 423.952454 C 64.525002 422.810333 61.487499 420.925354 60.25 419.763611 C 58 417.651367 58 417.651367 58 348.144531 C 58 278.637695 58 278.637695 64.15226 268.068848 C 67.536011 262.255981 73.313545 252.549988 76.991226 246.5 C 80.668915 240.450012 89.670906 225.375 96.995644 213 C 104.320389 200.625 112.662483 186.674988 115.533646 182 C 118.4048 177.325012 128.697449 160.120361 138.406174 143.767456 C 148.114914 127.414551 163.517715 101.539551 172.634628 86.267456 C 181.751526 70.995361 190.896469 56.245453 192.956696 53.489868 C 195.254944 50.415955 198.736298 47.372833 201.964966 45.615601 C 205.547699 43.665619 209.185913 42.598907 213.363663 42.27356 C 218.336411 41.886292 220.809326 42.291656 226.404907 44.411316 C 230.202591 45.849945 237.402588 49.329651 242.404907 52.144043 C 247.407211 54.958435 255.774994 59.756927 261 62.807404 C 266.225006 65.857849 274.774994 70.941406 280 74.104187 C 285.225006 77.266937 292.061249 81.349854 295.191681 83.177338 C 298.322083 85.004791 304.593597 88.698059 309.128387 91.384552 C 313.663147 94.071075 319.525085 98.281769 322.154938 100.741699 C 325.42041 103.796173 327.611938 107.003418 329.066864 110.857117 C 330.739197 115.286774 331.103424 118.018188 330.760925 123.56131 C 330.43689 128.805359 329.575104 132.072418 327.412292 136.25589 C 325.810547 139.354187 318.023956 152.826599 310.108765 166.19458 C 302.193604 179.562561 293.868591 193.52121 291.608765 197.213776 C 289.348938 200.906342 284.985504 208.106354 281.912231 213.213776 C 278.838959 218.321198 270.711334 231.950012 263.8508 243.5 C 256.990295 255.049988 247.400177 271.25 242.539444 279.5 C 237.678696 287.75 231.360229 298.325012 228.498383 303 C 225.636551 307.674988 220.191147 316.829224 216.397522 323.342712 C 212.603882 329.856201 205.890396 341.105133 201.478653 348.340332 C 193.756912 361.003967 193.215347 361.63028 186.978653 365.109344 C 183.41539 367.097076 171.620941 373.526276 160.768753 379.396423 C 149.916565 385.266602 131.916565 395.056671 120.768745 401.1521 C 109.620934 407.247559 94.90844 415.184448 88.074318 418.789642 C 81.240189 422.394806 74.715187 425.498535 73.574318 425.686768 Z M 116 376.754456 C 118.096039 376.543518 128.525452 371.474579 142 364.117859 C 154.375 357.361481 165.393753 350.964722 166.486115 349.902863 C 167.980591 348.450134 168.219772 347.57196 167.452347 346.355347 C 166.891403 345.466064 160.147644 341.00293 152.466217 336.437256 C 144.784805 331.871613 135.350006 326.168945 131.5 323.764709 C 127.650002 321.360443 116.453964 314.692322 106.619926 308.946655 C 96.785881 303.200989 87.533401 297.970886 86.058846 297.324219 C 84.417702 296.604492 82.819748 296.493042 81.938927 297.036957 C 80.957619 297.642883 80.340988 300.480957 80 305.960907 C 79.724998 310.380402 79.653214 323.273193 79.840477 334.611572 C 80.180962 355.226837 80.180962 355.226837 83.340477 358.518677 C 85.078217 360.329193 92.349998 365.252136 99.5 369.458588 C 110.254417 375.785583 113.104576 377.045837 116 376.754456 Z M 184.979996 329 C 185.880753 329 187.322388 328.4375 188.183624 327.75 C 189.044861 327.0625 191.986755 322.899994 194.721161 318.5 C 197.455582 314.100006 212.197037 289.575012 227.47995 264 C 242.762863 238.424988 257.119476 214.503387 259.383514 210.840851 C 261.647583 207.178284 265.524994 200.687805 268 196.417542 C 270.475006 192.147247 273.957123 186.14389 275.738068 183.076691 C 277.523224 180.002289 278.981506 176.072205 278.988068 174.317993 C 278.999237 171.335541 278.294434 170.703522 267.75 164.240753 C 261.5625 160.448364 253.125 155.321045 249 152.84668 C 244.875 150.372314 235.754837 144.907379 228.732956 140.702332 C 221.71109 136.497284 212.486084 130.958221 208.232956 128.39328 C 203.979828 125.828369 197.371674 121.899323 193.548157 119.662079 C 189.72464 117.424835 185.418167 115.421448 183.978195 115.210114 C 181.979828 114.916809 180.644867 115.640442 178.338669 118.267059 C 176.676895 120.159729 172.969727 125.711395 170.10054 130.604126 C 167.231339 135.496857 162.066681 144.159821 158.62352 149.855194 C 155.180359 155.550537 149.634521 164.775543 146.299438 170.355194 C 142.964355 175.934845 136.29039 187.024994 131.468384 195 C 126.646393 202.975006 120.571129 213.100006 117.967812 217.5 C 115.364487 221.899994 109.518463 231.575012 104.976639 239 C 100.434822 246.424988 94.708519 255.988464 92.251534 260.252167 C 88.991837 265.908813 87.948189 268.65741 88.390656 270.420349 C 88.845047 272.230804 92.629936 274.990234 103.491547 281.429932 C 111.463524 286.156433 124.176689 293.686981 131.743027 298.16452 C 139.309357 302.642059 149.324997 308.65036 154 311.516296 C 158.675003 314.382263 167.189499 319.488525 172.921127 322.863556 C 178.65274 326.238586 184.079239 329 184.979996 329 Z M 285.661102 134.977844 C 287.97934 134.99408 289.512512 134.179626 291.411102 131.923279 C 292.908417 130.143829 294 127.609955 294 125.913757 C 294 123.644043 293.152191 122.405426 290.25 120.435181 C 288.1875 119.034973 283.720306 116.145264 280.322876 114.01358 C 276.925446 111.881897 270.400452 107.99884 265.822876 105.384521 C 261.2453 102.770203 255.024994 98.976471 252 96.954041 C 248.975006 94.93161 244.25 92.081146 241.5 90.61969 C 238.75 89.158264 233.350006 85.931335 229.5 83.448761 C 224.476532 80.209473 221.661926 79.01474 219.531921 79.217499 C 217.432587 79.417297 215.882141 80.515015 214.234802 82.967804 C 212.798111 85.106964 212.019608 87.555267 212.202881 89.357971 C 212.456848 91.855927 213.807068 93.077637 221.5 97.770203 C 226.449997 100.789642 237.024994 107.196594 245 112.007874 C 252.975006 116.819153 264.674988 123.950684 271 127.855682 C 278.806824 132.675537 283.515167 134.962799 285.661102 134.977844 Z" />
  <path
     id="path1"
     fill="#000000"
     fill-rule="evenodd"
     stroke="none"
     d="M 479.5 119.5 C 479.5 153.5 479.5 153.5 472.5 153.761627 C 468.649994 153.905518 461.225006 154.708954 456 155.547028 C 450.774994 156.385132 443.466675 157.966583 439.759277 159.061371 C 436.05188 160.156189 430.343719 162.619598 427.074493 164.535645 C 423.805267 166.451691 419.672913 169.245789 417.891449 170.744781 C 416.110016 172.243774 412.965179 176.08078 410.902954 179.271454 C 408.507751 182.977295 406.493622 187.858795 405.326721 192.786346 C 403.980774 198.469788 403.509888 204.334198 403.537537 215.067841 C 403.560455 223.970093 404.286011 234.276245 405.403107 241.567841 C 406.408508 248.130524 408.366913 258.674988 409.755096 265 C 411.14325 271.325012 412.907196 279.200012 413.674927 282.5 C 414.442657 285.799988 416.815094 297.049988 418.946991 307.5 C 421.078888 317.950012 423.76297 332.401184 424.911591 339.613708 C 426.481873 349.47406 427 357.319122 427 371.235504 C 427 387.630524 426.716309 390.871338 424.515106 399.621765 C 423.148407 405.05481 420.216461 413.182556 417.999634 417.683472 C 415.167511 423.433655 411.734741 428.242035 406.454742 433.854706 C 401.146912 439.496948 395.939392 443.700836 388.720215 448.171234 C 383.099091 451.652039 375.575012 455.78241 372 457.349823 C 368.424988 458.917206 361.261017 461.749329 356.080017 463.643402 C 350.899017 465.537445 342.574005 467.951355 337.580017 469.007568 C 332.585999 470.063812 324 471.644897 318.5 472.521088 C 311.866943 473.57782 299.745911 474.237183 282.5 474.479462 C 268.200012 474.680359 252 474.489349 246.5 474.054932 C 241 473.620544 230.875 472.51828 224 471.605438 C 217.125 470.692596 207.424561 469.276886 202.443451 468.459412 C 197.462357 467.641907 190.037354 466.282959 185.943451 465.439453 C 181.849548 464.595978 176.25 463.281586 173.5 462.518616 C 170.75 461.755646 165.800003 460.43631 162.5 459.586731 C 159.199997 458.737183 152 456.93927 146.5 455.59137 C 141 454.243469 130.649994 451.291107 123.5 449.030579 C 116.349998 446.77002 108.587502 444.226166 106.25 443.377533 C 103.345978 442.323242 102 441.251038 102 439.992004 C 102 438.763947 105.25164 436.022705 111.75 431.772461 C 117.112503 428.265137 124.951981 423.494568 129.171066 421.171265 C 136.842117 416.947052 136.842117 416.947052 147.671066 419.885193 C 153.626984 421.50116 166.824997 424.88266 177 427.399658 C 187.175003 429.916656 200.449997 432.864655 206.5 433.950775 C 212.550003 435.036896 221.550003 436.377319 226.5 436.929504 C 231.449997 437.481689 241.350006 438.46051 248.5 439.104675 C 256.607147 439.835083 270.156616 440.060425 284.5 439.703461 C 297.763824 439.373352 311.521454 438.469299 317 437.56781 C 322.225006 436.708008 331 434.605408 336.5 432.895386 C 342 431.185333 349.424988 428.45224 353 426.821869 C 356.575012 425.191498 361.75 422.78241 364.5 421.468353 C 367.25 420.154297 372.440887 416.632446 376.035309 413.642029 C 379.923035 410.407593 383.626404 406.239136 385.176788 403.352478 C 386.610199 400.683624 388.82962 395.208862 390.108826 391.18631 C 392.043091 385.103973 392.427551 381.771362 392.392365 371.391907 C 392.368134 364.243286 391.617584 354.764648 390.63559 349.205566 C 389.692627 343.867493 388.22879 335.674988 387.382629 331 C 386.536469 326.325012 384.929169 318.225006 383.810822 313 C 382.692505 307.774994 380.661194 299 379.296814 293.5 C 377.932434 288 375.796661 278.774994 374.55069 273 C 373.304718 267.225006 371.555939 258 370.66452 252.5 C 369.773102 247 368.583893 238.419525 368.021881 233.432281 C 367.459839 228.445038 367.007843 219.445038 367.017456 213.432281 C 367.027069 207.419525 367.668945 198.633209 368.443848 193.907166 C 369.21875 189.181091 370.563477 182.881104 371.432129 179.907166 C 372.300781 176.933228 374.471405 171.682648 376.255737 168.239197 C 378.0401 164.795746 381.511963 159.235352 383.971008 155.882751 C 386.430054 152.530182 392.055054 146.895081 396.471008 143.360352 C 400.886963 139.825592 408.100006 135.196167 412.5 133.072693 C 416.899994 130.949249 424.549988 127.878998 429.5 126.249969 C 434.450012 124.620911 444.125 122.492981 451 121.521179 C 457.875 120.549408 467.100006 119.697083 471.5 119.627167 L 479.5 119.5 Z" />
  <path
     id="path2"
     fill="#B6BCC4"
     fill-rule="evenodd"
     stroke="none"
     d="M 116 375.742615 C 113.270905 375.979401 110.6278 374.942505 104 371.035126 C 99.324997 368.278992 92.867485 364.331085 89.649971 362.261993 C 86.432457 360.192871 83.16996 357.284851 82.399971 355.799683 C 81.305717 353.689026 81 347.452454 81 327.240784 C 81 306.114777 81.26738 301.027008 82.460983 299.441132 C 83.890869 297.541321 84.034538 297.562286 89.210983 300.426575 C 92.119942 302.036163 97.425003 305.010712 101 307.036682 C 104.574997 309.062622 110.100868 312.245667 113.279701 314.110107 C 116.458542 315.974548 123.533379 320.200012 129.001572 323.5 C 134.469757 326.799988 142.838348 331.745026 147.59845 334.488953 C 152.358566 337.232849 158.333725 340.837097 160.876587 342.498352 C 163.445404 344.176575 165.630447 346.4263 165.793533 347.560852 C 166.040268 349.277313 162.373489 351.662323 142.793533 362.520905 C 128.02803 370.709534 118.218613 375.55014 116 375.742615 Z" />
  <path
     id="path3"
     fill="#aaffaa"
     fill-rule="evenodd"
     stroke="none"
     d="M 185.255783 329 C 184.243942 329 179.609955 326.806396 174.958038 324.125366 C 170.306122 321.444336 152.324997 310.802734 135 300.477417 C 117.675003 290.152069 100.349998 279.633148 96.5 277.102051 C 90.249817 272.99295 89.471245 272.125092 89.231583 269 C 89.029724 266.367798 90.047935 263.640442 93.338226 258 C 95.744507 253.875 114.914024 221.924988 135.937164 187 C 156.960297 152.075012 175.408127 121.924988 176.932327 120 C 179.126877 117.228363 180.520828 116.438263 183.630585 116.203308 C 187.107788 115.940613 189.902344 117.306458 208.028793 128.128174 C 219.287949 134.850037 238.175003 146.155121 250 153.25058 C 261.825012 160.346039 273.075012 167.400116 275 168.926331 C 277.098694 170.590271 278.626709 172.762299 278.816498 174.351379 C 279.006622 175.943481 277.794708 179.496368 275.780823 183.250732 C 273.937134 186.687836 254.255646 219.779419 232.044174 256.787598 C 209.832703 293.795776 190.632736 325.183258 189.377579 326.537598 C 188.122437 327.891907 186.267624 329 185.255783 329 Z" />
</svg>

<?xml version="1.0" encoding="UTF-8" standalone="no"?>
<svg xmlns="http://www.w3.org/2000/svg" id="svg1" width="512" height="512" version="1.1">
  <path id="Shape" fill="#000" fill-rule="evenodd" stroke="none" d="M73.574 425.687c-1.14.188-4.099-.592-6.574-1.735-2.475-1.142-5.513-3.027-6.75-4.188C58 417.65 58 417.65 58 348.144c0-69.506 0-69.506 6.152-80.075a1599.57 1599.57 0 0 1 12.84-21.569c3.677-6.05 12.679-21.125 20.004-33.5 7.324-12.375 15.666-26.325 18.538-31 2.87-4.675 13.163-21.88 22.872-38.233a33686.921 33686.921 0 0 1 34.229-57.5c9.117-15.272 18.261-30.022 20.322-32.777 2.298-3.074 5.78-6.117 9.008-7.874 3.583-1.95 7.22-3.017 11.399-3.342 4.972-.388 7.445.018 13.04 2.137 3.799 1.439 10.999 4.919 16 7.733 5.003 2.814 13.371 7.613 18.596 10.663s13.775 8.134 19 11.297c5.225 3.163 12.061 7.246 15.192 9.073 3.13 1.828 9.402 5.521 13.936 8.208 4.535 2.686 10.397 6.897 13.027 9.357 3.265 3.054 5.457 6.261 6.912 10.115 1.672 4.43 2.036 7.161 1.694 12.704-.324 5.244-1.186 8.511-3.349 12.695-1.601 3.098-9.388 16.57-17.303 29.939-7.915 13.368-16.24 27.326-18.5 31.019a3087.099 3087.099 0 0 0-9.697 16c-3.073 5.107-11.2 18.736-18.061 30.286-6.86 11.55-16.45 27.75-21.312 36-4.86 8.25-11.179 18.825-14.04 23.5-2.862 4.675-8.308 13.83-12.101 20.343-3.794 6.513-10.508 17.762-14.92 24.997-7.721 12.664-8.263 13.29-14.5 16.77-3.563 1.987-15.357 8.416-26.21 14.286-10.851 5.87-28.851 15.66-40 21.756-11.147 6.096-25.86 14.032-32.694 17.638-6.834 3.605-13.359 6.709-14.5 6.897ZM116 376.754c2.096-.21 12.525-5.28 26-12.636 12.375-6.757 23.394-13.153 24.486-14.215 1.495-1.453 1.734-2.331.966-3.548-.56-.889-7.304-5.352-14.986-9.918-7.681-4.565-17.116-10.268-20.966-12.672-3.85-2.405-15.046-9.073-24.88-14.818-9.834-5.746-19.087-10.976-20.561-11.623-1.641-.72-3.24-.831-4.12-.287-.981.606-1.598 3.444-1.939 8.924-.275 4.42-.347 17.312-.16 28.65.341 20.616.341 20.616 3.5 23.908 1.738 1.81 9.01 6.733 16.16 10.94 10.754 6.327 13.605 7.587 16.5 7.295ZM184.98 329c.9 0 2.342-.563 3.204-1.25.86-.688 3.803-4.85 6.537-9.25 2.735-4.4 17.476-28.925 32.759-54.5 15.283-25.575 29.64-49.497 31.904-53.16 2.264-3.662 6.141-10.152 8.616-14.422 2.475-4.27 5.957-10.274 7.738-13.341 1.785-3.075 3.244-7.005 3.25-8.759.011-2.982-.694-3.614-11.238-10.077A2882.894 2882.894 0 0 0 249 152.847c-4.125-2.475-13.245-7.94-20.267-12.145a9841.507 9841.507 0 0 1-20.5-12.309 1566.199 1566.199 0 0 0-14.685-8.73c-3.823-2.238-8.13-4.242-9.57-4.453-1.998-.293-3.333.43-5.64 3.057-1.661 1.893-5.368 7.444-8.237 12.337a2040.256 2040.256 0 0 1-11.477 19.251 5775.594 5775.594 0 0 0-12.325 20.5A7048.542 7048.542 0 0 1 131.47 195c-4.823 7.975-10.898 18.1-13.501 22.5-2.604 4.4-8.45 14.075-12.991 21.5-4.542 7.425-10.268 16.988-12.725 21.252-3.26 5.657-4.304 8.405-3.861 10.168.454 1.81 4.239 4.57 15.1 11.01 7.973 4.726 20.686 12.257 28.252 16.735 7.566 4.477 17.582 10.485 22.257 13.351 4.675 2.866 13.19 7.973 18.921 11.348 5.732 3.375 11.158 6.136 12.059 6.136Zm100.681-194.022c2.318.016 3.852-.798 5.75-3.055 1.497-1.78 2.589-4.313 2.589-6.01 0-2.269-.848-3.508-3.75-5.478-2.063-1.4-6.53-4.29-9.927-6.421-3.398-2.132-9.923-6.015-14.5-8.63-4.578-2.614-10.798-6.408-13.823-8.43-3.025-2.022-7.75-4.873-10.5-6.334-2.75-1.462-8.15-4.689-12-7.171-5.023-3.24-7.838-4.434-9.968-4.232-2.1.2-3.65 1.298-5.297 3.75-1.437 2.14-2.215 4.588-2.032 6.391.254 2.498 1.604 3.72 9.297 8.412 4.95 3.02 15.525 9.427 23.5 14.238a3631.896 3631.896 0 0 1 26 15.848c7.807 4.82 12.515 7.107 14.661 7.122Z"/>
  <path id="path1" fill="#000" fill-rule="evenodd" stroke="none" d="M479.5 119.5c0 34 0 34-7 34.262-3.85.144-11.275.947-16.5 1.785s-12.533 2.42-16.24 3.514c-3.708 1.095-9.416 3.559-12.686 5.475-3.269 1.916-7.401 4.71-9.183 6.209-1.781 1.499-4.926 5.336-6.988 8.526-2.395 3.706-4.41 8.588-5.576 13.515-1.346 5.684-1.817 11.548-1.79 22.282.023 8.902.749 19.208 1.866 26.5 1.006 6.563 2.964 17.107 4.352 23.432 1.388 6.325 3.152 14.2 3.92 17.5.768 3.3 3.14 14.55 5.272 25s4.816 24.901 5.965 32.114c1.57 9.86 2.088 17.705 2.088 31.622 0 16.395-.284 19.635-2.485 28.386-1.367 5.433-4.299 13.56-6.515 18.061-2.832 5.75-6.265 10.559-11.545 16.172-5.308 5.642-10.516 9.846-17.735 14.316-5.62 3.481-13.145 7.611-16.72 9.179-3.575 1.567-10.739 4.4-15.92 6.293-5.181 1.894-13.506 4.308-18.5 5.365-4.994 1.056-13.58 2.637-19.08 3.513-6.633 1.057-18.754 1.716-36 1.958-14.3.201-30.5.01-36-.424s-15.625-1.537-22.5-2.45c-6.875-.912-16.575-2.328-21.557-3.146-4.98-.817-12.406-2.176-16.5-3.02-4.093-.843-9.693-2.157-12.443-2.92-2.75-.763-7.7-2.083-11-2.932-3.3-.85-10.5-2.648-16-3.996-5.5-1.348-15.85-4.3-23-6.56-7.15-2.261-14.912-4.805-17.25-5.653-2.904-1.055-4.25-2.127-4.25-3.386 0-1.228 3.252-3.97 9.75-8.22 5.363-3.507 13.202-8.277 17.421-10.6 7.671-4.225 7.671-4.225 18.5-1.287 5.956 1.616 19.154 4.998 29.329 7.515 10.175 2.517 23.45 5.465 29.5 6.55 6.05 1.087 15.05 2.427 20 2.98 4.95.552 14.85 1.53 22 2.175 8.107.73 21.657.955 36 .598 13.264-.33 27.021-1.234 32.5-2.135 5.225-.86 14-2.963 19.5-4.673s12.925-4.443 16.5-6.073a870.93 870.93 0 0 0 11.5-5.354c2.75-1.314 7.94-4.836 11.535-7.826 3.888-3.234 7.591-7.403 9.142-10.29 1.433-2.668 3.653-8.143 4.932-12.166 1.934-6.082 2.319-9.415 2.283-19.794-.024-7.149-.774-16.627-1.756-22.186-.943-5.339-2.407-13.531-3.253-18.206-.847-4.675-2.454-12.775-3.572-18-1.118-5.225-3.15-14-4.514-19.5-1.365-5.5-3.5-14.725-4.746-20.5-1.246-5.775-2.995-15-3.886-20.5-.892-5.5-2.081-14.08-2.643-19.068-.562-4.987-1.014-13.987-1.005-20 .01-6.012.652-14.799 1.427-19.525.775-4.726 2.12-11.026 2.988-14 .869-2.974 3.04-8.224 4.824-11.668 1.784-3.443 5.256-9.004 7.715-12.356 2.46-3.353 8.084-8.988 12.5-12.523 4.416-3.534 11.629-8.164 16.029-10.287 4.4-2.124 12.05-5.194 17-6.823 4.95-1.63 14.625-3.757 21.5-4.729s16.1-1.824 20.5-1.894l8-.127Z"/>
  <path id="path2" fill="#B6BCC4" fill-rule="evenodd" stroke="none" d="M116 375.743c-2.73.236-5.372-.8-12-4.708-4.675-2.756-11.133-6.704-14.35-8.773-3.218-2.07-6.48-4.977-7.25-6.462-1.094-2.111-1.4-8.348-1.4-28.56 0-21.125.267-26.213 1.461-27.799 1.43-1.9 1.574-1.879 6.75.986 2.909 1.61 8.214 4.584 11.789 6.61 3.575 2.026 9.1 5.209 12.28 7.073 3.179 1.865 10.253 6.09 15.722 9.39 5.468 3.3 13.836 8.245 18.596 10.989 4.76 2.744 10.736 6.348 13.279 8.01 2.568 1.678 4.753 3.927 4.917 5.062.246 1.716-3.42 4.101-23 14.96-14.766 8.189-24.575 13.03-26.794 13.222Z"/>
  <path id="path3" fill="#fff" fill-rule="evenodd" stroke="none" d="M185.256 329c-1.012 0-5.646-2.194-10.298-4.875-4.652-2.68-22.633-13.322-39.958-23.648-17.325-10.325-34.65-20.844-38.5-23.375-6.25-4.109-7.029-4.977-7.268-8.102-.202-2.632.816-5.36 4.106-11 2.407-4.125 21.576-36.075 42.6-71 21.022-34.925 39.47-65.075 40.994-67 2.195-2.772 3.589-3.562 6.699-3.797 3.477-.262 6.271 1.103 24.398 11.925 11.259 6.722 30.146 18.027 41.971 25.123 11.825 7.095 23.075 14.15 25 15.675 2.099 1.664 3.627 3.836 3.816 5.425.19 1.592-1.021 5.145-3.035 8.9-1.844 3.437-21.525 36.528-43.737 73.537-22.211 37.008-41.411 68.395-42.666 69.75-1.256 1.354-3.11 2.462-4.122 2.462Z"/>
</svg>
